!!!COM: Corelli, Arcangelo
!!!OTL: 
!!!ONM: Opus 4, No. 12
!!!OMV: 3
!!!CDT: 1653/2/17/-1713/1/8/
!!!OCY: Italia
**kern	**kern	**kern	**kern
*clefC	*clefC	*clefG	*clefG
*k[f#c#]	*k[f#c#]	*k[f#c#]	*k[f#c#]
*b:	*b:	*b:	*b:
*M4/4	*M4/4	*M4/4	*M4/4
=1	=1	=1	=1
2B	2B	4dd	12ff#
.	.	.	12dd
.	.	.	12b
.	.	4b	12f#
.	.	.	12dd
.	.	.	12b
2A	2A	4ff#	12cc#
.	.	.	12ff#
.	.	.	12cc#
.	.	[4f#	12a
.	.	.	12cc#
.	.	.	12ff#
=2	=2	=2	=2
2G	2G	4f#]	12bb
.	.	.	12b
.	.	.	12cc#
.	.	4e	12dd
.	.	.	12cc#
.	.	.	12b
4F#	4F#	4f#	4a#
4D	4D	[4ff#	12r
.	.	.	12bb
.	.	.	12ff#
=3	=3	=3	=3
2E	2E	4ff#]	12gg
.	.	.	12ee
.	.	.	12ff#
.	.	2ee	12gg
.	.	.	12ee
.	.	.	12gg
4F#	4F#	.	12a#
.	.	.	12f#
.	.	.	12a#
4G	4G	4dd	12b
.	.	.	12cc#
.	.	.	12dd
=4	=4	=4	=4
4E	4E	2cc#	12g
.	.	.	12b
.	.	.	12cc#
4F#	4F#	.	12f#
.	.	.	12b
.	.	.	12a#
4BB	4BB	4b	4b
[4B	[4B	4b	12r
.	.	.	12dd
.	.	.	12b
=5	=5	=5	=5
4B]	4B]	4cc#	12ee
.	.	.	12cc#
.	.	.	12ee
4A#	4A#	4cc#	12ff#
.	.	.	12cc#
.	.	.	12ff#
4B	4B	4f#	12dd
.	.	.	12b
.	.	.	12dd
[4d	[4d	4dd	12ff#
.	.	.	12dd
.	.	.	12ff#
=6	=6	=6	=6
4d]	4d]	4ee	12gg
.	.	.	12ee
.	.	.	12gg
4c#	4c#	4ee	12aa
.	.	.	12ee
.	.	.	12aa
2d	2d	2a	12ff#
.	.	.	12dd
.	.	.	12ff#
.	.	.	12aa
.	.	.	12ff#
.	.	.	12aa
=7	=7	=7	=7
2d#	2d#	4ff#	12bb
.	.	.	12ff#
.	.	.	12bb
.	.	4ff#	12bb
.	.	.	12ff#
.	.	.	12bb
4E	4E	4b	4gg
4F#	4F#	4a#	[4ff#
=8	=8	=8	=8
2G	2G	2b	12ff#]
.	.	.	12ee
.	.	.	12dd
.	.	.	6ee
.	.	.	12ff#
2F#	2F#	2a#	2ff#
=9	=9	=9	=9
2d	2d	2ff#	12aa
.	.	.	12ff#
.	.	.	12gg
.	.	.	12aa
.	.	.	12ff#
.	.	.	12gg
4c#	4c#	4ee	12aa
.	.	.	12ee
.	.	.	12aa
4A	4A	4cc#	12aa
.	.	.	12ee
.	.	.	12aa
=10	=10	=10	=10
4d	4d	4a	12ff#
.	.	.	12aa
.	.	.	12ff#
4r	4r	4r	12dd
.	.	.	12aa
.	.	.	12ff#
2e	2e	2gg	12bb
.	.	.	12gg
.	.	.	12aa
.	.	.	12bb
.	.	.	12gg
.	.	.	12aa
=11	=11	=11	=11
4d#	4d#	4ff#	12bb
.	.	.	12ff#
.	.	.	12bb
4B	4B	4dd#	12bb
.	.	.	12ff#
.	.	.	12bb
4e	4e	4b	12gg
.	.	.	12bb
.	.	.	12gg
4r	4r	4r	12ee
.	.	.	12gg
.	.	.	12ee
=12	=12	=12	=12
2A	2A	4ee	12cc
.	.	.	12ee
.	.	.	12cc
.	.	4cc	12a
.	.	.	12ff#
.	.	.	12ee
4B	4B	4f#	12dd#
.	.	.	12cc#
.	.	.	12b
4G	4G	4b	12ee
.	.	.	12b
.	.	.	12ee
=13	=13	=13	=13
4A	4A	2a	12cc#
.	.	.	12dd#
.	.	.	12ee
4B	4B	.	12f#
.	.	.	12ee
.	.	.	12dd#
2E	2E	2g	12e
.	.	.	12ee
.	.	.	12ff#
.	.	.	12gg
.	.	.	12ee
.	.	.	12ff#
=14	=14	=14	=14
2C#	2C#	2ee	12gg
.	.	.	12bb
.	.	.	12gg
.	.	.	12ee
.	.	.	12aa
.	.	.	12ee
2D	2D	2a	12ff#
.	.	.	12dd
.	.	.	12ee
.	.	.	12ff#
.	.	.	12dd
.	.	.	12ee
=15	=15	=15	=15
2AA#	2AA#	2cc#	12ff#
.	.	.	12gg
.	.	.	12ff#
.	.	.	12cc#
.	.	.	12ff#
.	.	.	12ee
4BB	4BB	4f#	12dd
.	.	.	12ff#
.	.	.	12dd
4B	4B	4ff#	12b
.	.	.	12dd
.	.	.	12b
=16	=16	=16	=16
4E	4E	4gg	12cc
.	.	.	12ee
.	.	.	12cc
4F#	4F#	4ff#	12a#
.	.	.	12ee
.	.	.	12ff#
4G	4G	4b	12dd
.	.	.	12b
.	.	.	12dd
4D	4D	4dd	12ff#
.	.	.	12bb
.	.	.	12ff#
=17	=17	=17	=17
4E	4E	4cc#	12gg#
.	.	.	12aa#
.	.	.	12bb
4F#	4F#	8r	12cc#
.	.	.	12bb
.	.	8ff#	.
.	.	.	12aa#
4BB	4BB	4dd	12b
.	.	.	12dd
.	.	.	12b
4D	4D	8r	12f#
.	.	.	12b
.	.	8dd	.
.	.	.	12f#
=18	=18	=18	=18
4E	4E	4b	12g
.	.	.	12b
.	.	.	12g
4F#	4F#	8r	12f#
.	.	.	12b
.	.	8dd	.
.	.	.	12f#
4G	4G	4b	12e
.	.	.	12b
.	.	.	12e
4D	4D	8r	12f#
.	.	.	12b
.	.	8dd	.
.	.	.	12f#
=19	=19	=19	=19
4E	4E	4b	12g
.	.	.	12b
.	.	.	12g
4F#	4F#	8r	12f#
.	.	.	12b
.	.	8f#	.
.	.	.	12a#
2BB	2BB	2d	2b
==	==	==	==
*-	*-	*-	*-
!!!RWG: This file only contains pitch and duration data.
!!!RWG: Transposing instruments are not transposed.
!!!RWG: Durations of rests and tied notes may be interpreted.
!!!RWG: Key is interpreted using the Humdrum key tool.
!!!SCA: 
!!!YOR: Chrysander Edition
!!!AGN: chamber
!!!AFT: stage1
!!!ENC: F. Bennion
!!!END: 1997/04/15
!!!AST: baroque
!!!YEC: Copyright 1994, Center for Computer Assisted Research in the Humanities
!!!YEM: Rights to all derivative electronic formats reserved.
!!!YEM: Refer to licensing agreement for further details.
!!!YEN: United States of America
!!!EED: W.B. Hewlett
!!!KEY: 2243964619
!!!EMD: Converted from MuseData to Humdrum Aug 9, 1999, by Bret Aarden using muse2kern.
!!!VTS: 506665616
